X: 582
T: Dinleyenler Güssa-i Devrândan
C: Ahmet Avni Konuk
O: Turkey
F: http://compmusic.upf.edu/node/140
N: sevkidil--kupe--devrirevanihindi--dinleyenler--ahmet_avni_konuk
N: makam= sevkidil
N: form= kupe
N: usul= devrirevanihindi = 14/8
M: 14/8
L: 1/16
K: C _1/4B ^f  
Q: 1/4=102
%%MIDI tuningsystem comma53
e2e2 f2g4a2 {b}agg2 f2g2 f3e .d4  | \
w:  Din *  le yen *  *  *  *  ler   | 
efe2 f2g4a2 b2a2 g2f2 g6z2  | 
w:  güs *  *  sa  i  *  *  dev  | 
e2{f}e2 f2g2 fef2 e2a2 g2f2 agfe d2z2  | \
w:  ran *  *  *  dan  *  *  *  *  â  | 
e=fef edeg feed d^cd2 cded d6z2  | 
w:  zâ *  *  *  *  *  *  *  *  *  de *  *  *  dir    | 
G2d2 d2_7/8ed d^cd4d2 e2e2 e2f2 e2d2  | \
w:  Şevk_ *  ı  Dil *  *  *  le  zevk_  | 
a2.g2 f2gf _7/8efe2 d2d4dc B3A G2z2  | 
w:  ı  *  dil  *  *  *  *  *  *  üf  | 
G4 A2cB AcBA G2e2 d2c2 B/A/B/c/BA G2z2  | \
w:  tâ de  vü  *  *  *  *  *  *  dil  | 
A_7/8BAB AGAc _1/4BAAG GFG2 F2AG G6z2  | 
w:  dâ *  *  *  *  *  *  *  *  *  de *  *  *  dir    | 
|


